design-system/components/icon/icons/play.svg

<?xml version="1.0" encoding="UTF-8"?>
<svg width="40px" height="40px" viewBox="0 0 40 40" version="1.1" xmlns="http://www.w3.org/2000/svg" xmlns:xlink="http://www.w3.org/1999/xlink">
    <!-- Generator: Sketch 64 (93537) - https://sketch.com -->
    <title>icon/play</title>
    <desc>Created with Sketch.</desc>
    <g id="icon/play" stroke="none" stroke-width="1" fill="none" fill-rule="evenodd">
        <path d="M39.6424,20.0001 C39.6424,21.0261 39.1194,21.9801 38.2554,22.5321 L11.6124,39.5291 C11.1214,39.8421 10.5614,40.0001 9.9994,40.0001 C9.5044,40.0001 9.0074,39.8771 8.5574,39.6301 C7.5974,39.1031 6.9994,38.0941 6.9994,36.9981 L6.9994,3.0021 C6.9994,1.9061 7.5974,0.8971 8.5574,0.3701 C9.5174,-0.1579 10.6884,-0.1179 11.6124,0.4711 L38.2554,17.4681 C39.1194,18.0201 39.6424,18.9741 39.6424,20.0001" id="shape-bg" fill="#000000"></path>
    </g>
</svg>

<svg height="40" viewBox="0 0 40 40" width="40" xmlns="http://www.w3.org/2000/svg">
    <path d="m39.6424 20.0001c0 1.026-.523 1.98-1.387 2.532l-26.643 16.997c-.491.313-1.051.471-1.613.471-.495 0-.992-.123-1.442-.37-.96-.527-1.558-1.536-1.558-2.632v-33.996c0-1.096.598-2.105 1.558-2.632.96-.528 2.131-.488 3.055.101l26.643 16.997c.864.552 1.387 1.506 1.387 2.532" fill-rule="evenodd"/>
</svg>
